!!!!SEGMENT: pl-kozmzk--mzk-m-346--052_walczynski-franciszek--cantantibus-organis-larghetto.krn
!!!cenid: 18xx:2847
!!!COM: Walczyński, Franciszek
!!!COM-rismID: pe30021989
!!!CDT: ~1852-1937
!!!CNT: Polish
!!!GTL: Cantantibus organis op. 10
!!!OTL: 52. Larghetto
!!!PDT: 1898
!!!AGN: Secular
!!!SMS-siglum: PL-KOZmzk
!!!SMS-shelfmark: mzk/m/346
!!!SMS-shelfwork: 052 G
!!!SMS-variant:
!!!SMS-altvar:
!!!NIFC-rismSourceID: 1001099615
!!!NIFC-rismChildID: 1001109654
!!!NIFC-islandoraID: pl-kozmzk:7453
!!!URL-pdf-islandora: https://repozytorium.nifc.pl/islandora/object/pl-kozmzk%3A7453/datastream/PDF/view
!!!URL-scan: https://polish.musicsources.pl/pl/lokalizacje/galeria/druki-muzyczne/7581 @EN{Scan on Polish Music Sources Website} @PL{Skany w portalu Dziedzictwo Muzyki Polskiej w otwartym dostępie}
!!!ONB-nifc:
!!!OMD: Larghetto.
!!!AIN: 1 empty
!!!key:
**kern	**kern	**dynam
*part1	*part1	*part1
*staff2	*staff1	*
*Iempty	*Iempty	*
*	*I"52.	*
*clefF4	*clefG2	*
*k[b-e-a-d-]	*k[b-e-a-d-]	*
*A-:	*A-:	*
*M4/4	*M4/4	*
*met(c)	*met(c)	*
=1	=1	=1
*	*^	*
2r	(4cc/	2r	p
.	4a-/	.	.
(4e-\	2b-/	2g\	<
4d-\	.	.	[[
=2	=2	=2	=2
4c\	4ee-/	2.a-\	.
4B-\	4dd-/	.	.
4.e-\	2b-/)	.	>
.	.	4g\	.
8d-\)	.	.	]]
=3	=3	=3	=3
(4c\	2rcc	2re	.
4A-\	.	.	.
!	!	!	!LO:DY:a:t=pf
4B-\	(2f/	2dn\	fp
4A-\	.	.	.
=4	=4	=4	=4
4G\	4b-/	[1e-	<
4F\	4a-/	.	.
4E-\	2g/	.	.
4D-X\	.	.	.
=5	=5	=5	=5
4C/	4a-/	1e-]	.
4FF#X/	4an/	.	.
2GG/)	4b-/	.	.
.	4bn/)	.	[[
=6	=6	=6	=6
(4AA-/	(4cc/	(2e-\	f
4C/	4a-/	.	.
4D-\	2b-/	4f\	.
8E-\L	.	4g\	.
8D-\J	.	.	.
=7	=7	=7	=7
4C/	4ee-/	2a-\	.
4BB-/	4dd-/	.	.
4E-\	2b-/	4g\	.
4D-\	.	4f\	.
=8	=8	=8	=8
!	!	!	!LO:DY:a:rj
4C/	4cc/	4en\	pp
4F\	4a-/	2f\	.
4Dn\	2b-/	.	.
8E-\L	.	4g\)	.
8D-X\J	.	.	.
!!LO:LB:g=original
=9	=9	=9	=9
4C/	4ee-/	2.a-\	.
4BB-/	4dd-/	.	.
4E-\	2b-/)	.	.
8e-\L	.	4g\	.
8d-\J)	.	.	.
=10	=10	=10	=10
(2c\	(4ee-/	([1a-	f
.	4aa-/	.	.
4d-\	4ff/	.	.
4B-\	4dd-/	.	.
=11	=11	=11	=11
2e-\	4cc/	4a-\]	.
.	4b-/	4g\	.
4A-\	2cc/	2a-\)	.
4G-X\)	.	.	.
=12	=12	=12	=12
4F\	4dd-/	(2.a-\	p
.	.	.	>
4E-\	4cc/	.	.
4D-\	2b-/	.	.
4E-\	.	4g\	.
=13	=13	=13	=13
2.F;Z\	2.a-;/)	2.f\)	.
(<4F-X\	4r	4ryy	] p
=14	=14	=14	=14
4E-\	1ree	1rg	<
4A-\	.	.	.
4Fn\	.	.	[ >
4D-\	.	.	]]
=15	=15	=15	=15
*	*	*	*^
2E-\	2r	2rc<	.	.
!	!	!	!LO:HP:b=2	!LO:DY:rj
2EE-\)	2d-/	(4G</	>	pp <
!LO:TX:b:i:t=rall.	!	!	!	!
.	.	8F</L	.	.
.	.	8G</J	.	[[
=16	=16	=16	=16	=16
1AA-;<	1c;	1A-<)	]	> ]]
*	*	*	*v	*v
*	*v	*v	*
==	==	==
*-	*-	*-
!!!system-decoration: {(s1,s2)}
!!!RDF**kern: > = above
!!!RDF**kern: < = below
!!!RDF**kern: Z = caesura
!!!ENC: Andrzej Kubiczek
!!!END: 2021-08-09
!!!ENC: Krzysztof Stępień
!!!END: 2021-07-28
!!!YEC: Copyright 2022 Narodowy Instytut Fryderyka Chopina (https://polishscores.org)
!!!YEM: License CC-BY-4.0 (https://creativecommons.org/licenses/by/4.0)
